static/img/common/ico-cancel2.svg

<svg width="12" height="12" viewBox="0 0 12 12" fill="none" xmlns="http://www.w3.org/2000/svg">
<path d="M5.52787 10.8057C8.44275 10.8057 10.8057 8.44275 10.8057 5.52787C10.8057 2.61298 8.44275 0.25 5.52787 0.25C2.61298 0.25 0.25 2.61298 0.25 5.52787C0.25 8.44275 2.61298 10.8057 5.52787 10.8057Z" fill="#CDD1DF" stroke="#BEC4DB" stroke-width="0.5" stroke-miterlimit="10"/>
<path d="M7.93648 2.73743C8.1357 2.54626 8.45231 2.55191 8.64351 2.7511C8.83456 2.95022 8.82772 3.2669 8.62886 3.45813L6.47163 5.52747L8.62886 7.5968C8.82795 7.7879 8.83438 8.10458 8.64351 8.30383C8.45235 8.50304 8.13573 8.50956 7.93648 8.31848L5.74995 6.21985L3.56441 8.31848C3.3652 8.50964 3.04858 8.50296 2.85738 8.30383C2.66621 8.10463 2.67191 7.78801 2.87105 7.5968L5.0273 5.52747L2.87105 3.45813C2.67225 3.26689 2.66633 2.95019 2.85738 2.7511C3.04862 2.55232 3.36532 2.54638 3.56441 2.73743L5.74995 4.83411L7.93648 2.73743Z" fill="white"/>
<path d="M7.93648 2.73743L7.97108 2.77352L7.9711 2.7735L7.93648 2.73743ZM8.64351 2.7511L8.67959 2.71648L8.67958 2.71647L8.64351 2.7511ZM8.62886 3.45813L8.66347 3.49421L8.66352 3.49417L8.62886 3.45813ZM6.47163 5.52747L6.43702 5.49138L6.39941 5.52747L6.43702 5.56355L6.47163 5.52747ZM8.62886 7.5968L8.66348 7.56073L8.66347 7.56072L8.62886 7.5968ZM8.64351 8.30383L8.67959 8.33845L8.67962 8.33842L8.64351 8.30383ZM7.93648 8.31848L7.90185 8.35455L7.90187 8.35457L7.93648 8.31848ZM5.74995 6.21985L5.78458 6.18378L5.74995 6.15054L5.71532 6.18378L5.74995 6.21985ZM3.56441 8.31848L3.59903 8.35456L3.59904 8.35455L3.56441 8.31848ZM2.85738 8.30383L2.8213 8.33845L2.82131 8.33846L2.85738 8.30383ZM2.87105 7.5968L2.83643 7.56073L2.83642 7.56074L2.87105 7.5968ZM5.0273 5.52747L5.06192 5.56354L5.09951 5.52747L5.06192 5.49139L5.0273 5.52747ZM2.87105 3.45813L2.83638 3.49416L2.83643 3.4942L2.87105 3.45813ZM2.85738 2.7511L2.82134 2.71643L2.8213 2.71648L2.85738 2.7511ZM3.56441 2.73743L3.52979 2.7735L3.52979 2.77351L3.56441 2.73743ZM5.74995 4.83411L5.71534 4.87019L5.74995 4.90339L5.78456 4.8702L5.74995 4.83411ZM7.93648 2.73743L7.9711 2.7735C8.15051 2.60135 8.43547 2.60657 8.60744 2.78572L8.64351 2.7511L8.67958 2.71647C8.46915 2.49725 8.12089 2.49118 7.90186 2.70135L7.93648 2.73743ZM8.64351 2.7511L8.60743 2.78572C8.77932 2.96486 8.77323 3.24993 8.5942 3.42209L8.62886 3.45813L8.66352 3.49417C8.88221 3.28387 8.8898 2.93557 8.67959 2.71648L8.64351 2.7511ZM8.62886 3.45813L8.59425 3.42205L6.43702 5.49138L6.47163 5.52747L6.50625 5.56355L8.66347 3.49421L8.62886 3.45813ZM6.47163 5.52747L6.43702 5.56355L8.59425 7.63288L8.62886 7.5968L8.66347 7.56072L6.50625 5.49138L6.47163 5.52747ZM8.62886 7.5968L8.59424 7.63287C8.77339 7.80484 8.77921 8.0899 8.6074 8.26925L8.64351 8.30383L8.67962 8.33842C8.88955 8.11927 8.88251 7.77096 8.66348 7.56073L8.62886 7.5968ZM8.64351 8.30383L8.60743 8.26921C8.4354 8.44849 8.15042 8.45437 7.97108 8.28239L7.93648 8.31848L7.90187 8.35457C8.12104 8.56475 8.46931 8.55758 8.67959 8.33845L8.64351 8.30383ZM7.93648 8.31848L7.9711 8.28241L5.78458 6.18378L5.74995 6.21985L5.71533 6.25592L7.90185 8.35455L7.93648 8.31848ZM5.74995 6.21985L5.71532 6.18378L3.52978 8.28242L3.56441 8.31848L3.59904 8.35455L5.78459 6.25591L5.74995 6.21985ZM3.56441 8.31848L3.52979 8.28241C3.35053 8.45442 3.06555 8.44844 2.89344 8.2692L2.85738 8.30383L2.82131 8.33846C3.03162 8.55748 3.37988 8.56486 3.59903 8.35456L3.56441 8.31848ZM2.85738 8.30383L2.89345 8.26921C2.72131 8.08982 2.72656 7.80485 2.90568 7.63287L2.87105 7.5968L2.83642 7.56074C2.61726 7.77117 2.61112 8.11943 2.8213 8.33845L2.85738 8.30383ZM2.87105 7.5968L2.90567 7.63288L5.06192 5.56354L5.0273 5.52747L4.99268 5.49139L2.83643 7.56073L2.87105 7.5968ZM5.0273 5.52747L5.06192 5.49139L2.90567 3.42205L2.87105 3.45813L2.83643 3.4942L4.99268 5.56354L5.0273 5.52747ZM2.87105 3.45813L2.90571 3.4221C2.72686 3.25004 2.72145 2.96496 2.89345 2.78572L2.85738 2.7511L2.8213 2.71648C2.6112 2.93542 2.61765 3.28374 2.83638 3.49416L2.87105 3.45813ZM2.85738 2.7511L2.89341 2.78576C3.06547 2.60692 3.35055 2.60151 3.52979 2.7735L3.56441 2.73743L3.59903 2.70135C3.38009 2.49126 3.03177 2.49771 2.82134 2.71643L2.85738 2.7511ZM3.56441 2.73743L3.52979 2.77351L5.71534 4.87019L5.74995 4.83411L5.78457 4.79803L3.59902 2.70135L3.56441 2.73743ZM5.74995 4.83411L5.78456 4.8702L7.97108 2.77352L7.93648 2.73743L7.90187 2.70134L5.71535 4.79802L5.74995 4.83411Z" fill="#BEC4DB"/>
</svg>

<svg xmlns="http://www.w3.org/2000/svg" width="12" height="12" fill="none" viewBox="0 0 12 12"><path fill="#cdd1df" stroke="#bec4db" stroke-miterlimit="10" stroke-width=".5" d="M5.528 10.806a5.278 5.278 0 1 0 0-10.556 5.278 5.278 0 0 0 0 10.556Z"/><path fill="#fff" d="M7.936 2.737a.5.5 0 1 1 .693.721l-2.157 2.07 2.157 2.069a.5.5 0 0 1-.693.721L5.75 6.22 3.564 8.318a.5.5 0 0 1-.693-.721l2.156-2.07-2.156-2.069a.5.5 0 0 1 .693-.72L5.75 4.833z"/><path fill="#bec4db" d="m7.936 2.737.035.037zm.708.014.036-.035zm-.015.707.034.036zm-2.157 2.07-.035-.037-.038.036.038.037zm2.157 2.069.034-.036zm.015.707.036.034zm-.708.014-.034.037zM5.75 6.22l.035-.036-.035-.033-.035.033zM3.564 8.318l.035.037zm-.707-.014-.036.034zm.014-.707-.035-.036zm2.156-2.07.035.037.038-.037-.038-.036zM2.871 3.458l-.035.036zm-.014-.707-.036-.035zm.707-.014-.034.036zM5.75 4.834l-.035.036.035.033.035-.033zm2.186-2.097.035.036a.45.45 0 0 1 .636.013l.037-.035.036-.035a.55.55 0 0 0-.778-.015zm.708.014-.037.035a.45.45 0 0 1-.013.636l.035.036.035.036a.55.55 0 0 0 .016-.778zm-.015.707-.035-.036-2.157 2.07.035.035.034.037 2.157-2.07zm-2.157 2.07-.035.036 2.157 2.069.035-.036.034-.036-2.157-2.07zm2.157 2.069-.035.036a.45.45 0 0 1 .013.636l.037.035.036.034a.55.55 0 0 0-.017-.777zm.015.707-.037-.035a.45.45 0 0 1-.636.013l-.035.036-.034.037a.55.55 0 0 0 .778-.017zm-.708.014.035-.036-2.186-2.098-.035.036-.035.036 2.187 2.099zM5.75 6.22l-.035-.036L3.53 8.282l.034.036.035.037 2.186-2.1zM3.564 8.318l-.034-.036a.45.45 0 0 1-.637-.013l-.036.035-.036.034a.55.55 0 0 0 .778.017zm-.707-.014.036-.035a.45.45 0 0 1 .013-.636l-.035-.036-.035-.036a.55.55 0 0 0-.015.777zm.014-.707.035.036 2.156-2.07-.035-.036-.034-.036-2.157 2.07zm2.156-2.07.035-.036-2.156-2.069-.035.036-.035.036 2.157 2.07zM2.871 3.458l.035-.036a.45.45 0 0 1-.013-.636l-.036-.035-.036-.035a.55.55 0 0 0 .015.778zm-.014-.707.036.035a.45.45 0 0 1 .637-.013l.034-.036.035-.036a.55.55 0 0 0-.778.015zm.707-.014-.034.037L5.715 4.87l.035-.036.035-.036-2.186-2.097zM5.75 4.834l.035.036L7.97 2.774l-.035-.037-.034-.036-2.187 2.097z"/></svg>
